X:485
T:Lord Eglintoun's Auld Man
R:Strathspey
B:The Athole Collection
M:C
L:1/8
K:D
d/B/|A<D G/F/E/D/ A<D Dd/B/|A<D G/F/E/D/ A2 Ad/c/|
B<E G>E B<E E>c|d>e g/f/e/d/ B2 A>B|d>e f<a e<f d>B|
A<F E>F A>B d>e|f>de>B d>AB>F|E/E/E F>A B2B||
f/g/|a>df>d a<d df/g/|a>df>d a2 af/a/|b>eg>e b<e ed/B/|
d>e g/f/e/d/ B2 A<B|d>e f<a e<fd<B|A<F D>F A>Bd>e|
f>de>B d>AB>F|E/E/E F>A B2B||

